build/img/Logo telling footer.svg

<svg width="158" height="39" viewBox="0 0 158 39" fill="none" xmlns="http://www.w3.org/2000/svg">
<path d="M16.3394 25.1044H16.3379L16.2411 25.1266C16.2383 25.1266 16.2353 25.1284 16.2319 25.1291L9.41903 26.7291L9.31449 26.7539C9.3131 26.7533 9.31157 26.7533 9.31018 26.7539C9.2938 26.7599 9.27763 26.7666 9.26104 26.7746C9.13604 26.835 9.03932 26.9442 8.99212 27.0782C8.94492 27.2122 8.95109 27.3602 9.00929 27.4895C9.01955 27.5129 9.03181 27.5352 9.04592 27.5564L9.18581 27.7054C9.25057 27.7516 9.32463 27.782 9.40241 27.7943C9.48018 27.8066 9.55964 27.8004 9.63478 27.7763C9.55964 27.8004 9.48018 27.8066 9.40241 27.7943C9.32463 27.782 9.25057 27.7516 9.18581 27.7054L11.3238 29.9747L14.2618 33.0926C14.2618 33.0941 14.2629 33.095 14.264 33.0955L14.3243 33.1594C14.3243 33.1605 14.3254 33.1619 14.3265 33.1623C14.3878 33.2169 14.4605 33.2562 14.5388 33.2772C14.6171 33.2982 14.6991 33.3003 14.7784 33.2834C14.8576 33.2665 14.9321 33.2311 14.996 33.1797C15.0599 33.1284 15.1116 33.0626 15.147 32.9874L15.2001 32.7739L16.361 28.0419L16.9078 25.8135C16.9024 25.8309 16.8962 25.8481 16.8891 25.8649C16.8962 25.8481 16.9024 25.8309 16.9078 25.8135C16.9078 25.8135 16.9091 25.8119 16.9078 25.8103L16.9259 25.7364C16.9259 25.7344 16.9272 25.7328 16.9272 25.7308C16.94 25.647 16.9338 25.5613 16.909 25.4804C16.8843 25.3995 16.8417 25.3257 16.7847 25.2648C16.7276 25.2038 16.6576 25.1574 16.5802 25.1292C16.5028 25.1011 16.4202 25.0919 16.3388 25.1024L16.3394 25.1044ZM9.96952 27.4485C9.98096 27.4161 9.98933 27.3825 9.99452 27.3484C9.98933 27.3825 9.98096 27.4161 9.96952 27.4485ZM9.99646 27.1922C9.99178 27.1568 9.9837 27.1219 9.97232 27.0882C9.98362 27.1219 9.99164 27.1568 9.99625 27.1922H9.99646ZM15.8907 25.7738C15.899 25.8098 15.9108 25.8448 15.926 25.8783C15.9108 25.8448 15.8989 25.8098 15.8905 25.7738H15.8907ZM16.2245 26.1611C16.2564 26.1731 16.2893 26.1819 16.3228 26.1874C16.2893 26.1819 16.2563 26.1731 16.2243 26.1611H16.2245Z" fill="#1E8BE8"/>
<path d="M29.7802 9.85926C28.6084 7.24066 27.0009 4.85511 25.0312 2.81125L24.9574 2.73482C24.9515 2.72745 24.945 2.72066 24.9378 2.71454L24.8984 2.67376C24.8967 2.6722 24.8954 2.67086 24.8926 2.66796C24.6052 2.39686 24.2499 2.21467 23.8673 2.14214C23.4847 2.06961 23.09 2.10964 22.7283 2.2577L22.7102 2.26506L22.6886 2.27486L22.6708 2.28266C22.6207 2.30494 22.5759 2.32723 22.5345 2.34952L21.978 2.78563C21.9539 2.81215 21.9312 2.84023 21.9084 2.86808L21.4079 3.26119L21.4068 3.234L14.0454 9.01467L14.0284 9.02804L14.0047 9.04675L1.16725 19.1299L1.1625 19.1337L0.900621 19.3388L0.898036 19.3408C0.848081 19.376 0.799879 19.4139 0.75362 19.4542L0.73853 19.4667C0.526366 19.649 0.352068 19.8738 0.226126 20.1275C0.100183 20.3813 0.0252016 20.6588 0.00569018 20.9433C-0.00464767 21.0874 -0.000892178 21.2322 0.0168988 21.3756C0.0168988 21.3783 0.0169009 21.3805 0.0190563 21.3854C0.0350657 21.5141 0.0629222 21.641 0.102252 21.7642V21.7662V21.7678L0.103976 21.772V21.7751V21.7796C0.267763 22.4646 0.495364 23.1316 0.783582 23.7712C0.793281 23.7935 0.802981 23.814 0.813327 23.8349C1.10226 24.4665 1.44937 25.0677 1.84986 25.6304V25.632L1.85569 25.6429H1.85719C1.9616 25.8342 2.09408 26.0077 2.24991 26.157L2.25099 26.1586C2.59265 26.4873 3.03296 26.685 3.49854 26.7188C3.61426 26.7275 3.73049 26.7261 3.84599 26.7148C4.02124 26.6979 4.19365 26.6577 4.35898 26.5953L4.49736 26.5628L7.42636 25.874L7.45631 25.8669L7.47593 25.8624L17.446 23.5207L20.1864 22.8767L20.1981 22.874L29.2508 20.7476L29.2918 20.738L30.1496 20.5361L30.1546 20.535C30.2562 20.5193 30.3564 20.4958 30.4546 20.4646H30.4574C30.507 20.4492 30.5591 20.4296 30.6126 20.4073L30.632 20.3991L30.6536 20.3901C30.6775 20.3797 30.7014 20.3692 30.7251 20.3578C31.0594 20.1978 31.346 19.9479 31.555 19.6343C31.7641 19.3208 31.888 18.955 31.9138 18.5751C31.9171 18.5287 31.9194 18.4826 31.9201 18.4373V18.4324C31.9208 18.3091 31.9112 18.1859 31.8914 18.0643L31.8931 18.0592L31.8906 18.0516C31.6554 15.2296 30.9471 12.4714 29.7974 9.90049L29.7884 9.88021L29.7793 9.8597L29.7802 9.85926ZM27.4038 11.3078C27.4997 11.5475 27.5813 11.7931 27.6483 12.0432C27.9368 13.1217 27.9388 14.2606 27.6543 15.3402L27.6524 15.346C27.6489 15.3585 27.6459 15.3714 27.6429 15.3841C27.6399 15.3968 27.6373 15.4079 27.6342 15.4186L27.6228 15.4247L27.6278 15.4356C27.6233 15.4472 27.6176 15.4579 27.6123 15.4692C27.6069 15.4806 27.603 15.4902 27.5974 15.5C27.5918 15.5098 27.583 15.5223 27.5758 15.5323C27.5687 15.5423 27.5631 15.5519 27.5558 15.561C27.5485 15.5702 27.5388 15.5793 27.5301 15.5884C27.5215 15.5976 27.5144 15.6061 27.5056 15.6141C27.4967 15.6221 27.486 15.6295 27.4763 15.6364C27.4666 15.6433 27.4582 15.6513 27.4485 15.6586C27.4388 15.666 27.4258 15.6714 27.4142 15.6774C27.4025 15.6834 27.3952 15.6885 27.3853 15.693C27.3754 15.6974 27.3579 15.703 27.3441 15.7077C27.3353 15.7106 27.3267 15.7146 27.3174 15.717C27.3003 15.7212 27.2829 15.7243 27.2655 15.7264C27.259 15.7264 27.2525 15.7293 27.2461 15.73C27.1738 15.7369 27.101 15.7258 27.0338 15.6976C26.9666 15.6693 26.9069 15.6248 26.8598 15.5677C26.8382 15.5339 26.8167 15.4998 26.7951 15.465C25.4381 13.3277 24.4126 10.9842 23.756 8.51928L23.7536 8.51304C23.7536 8.51125 23.7536 8.50858 23.7519 8.50858C23.7515 8.50505 23.7507 8.50159 23.7493 8.49833C23.7435 8.4776 23.7375 8.45643 23.7334 8.43593L23.7323 8.43236V8.42969C23.7275 8.39703 23.7261 8.36394 23.7282 8.33097C23.7319 8.27543 23.7463 8.2212 23.7704 8.17141C23.7945 8.12162 23.8278 8.07726 23.8686 8.04086C23.9093 8.00447 23.9566 7.97677 24.0078 7.95936C24.0589 7.94195 24.1129 7.93517 24.1666 7.93942C24.1824 7.94062 24.1981 7.94285 24.2136 7.94611C24.2183 7.94611 24.2233 7.94856 24.228 7.9499C24.2377 7.95213 24.2477 7.9548 24.2574 7.95792L24.2636 7.96929L24.2737 7.96438C24.2977 7.9753 24.3218 7.98667 24.3444 7.99826L24.3518 8.00205C25.6478 8.62786 26.6894 9.70538 27.2939 11.0457C27.3353 11.1406 27.3715 11.2271 27.4038 11.3082V11.3078Z" fill="#1E8BE8"/>
<path d="M53.5473 12.6564V22.4881C53.5473 23.1729 53.7031 23.6743 54.0146 23.9922C54.3501 24.2857 54.9012 24.4324 55.668 24.4324H58.0043V28.7613H54.8413C50.5999 28.7613 48.4792 26.658 48.4792 22.4514V12.6564H46.1069V8.43762H48.4792V3.41173H53.5473V8.43762H58.0043V12.6564H53.5473Z" fill="white"/>
<path d="M80.1348 18.1592C80.1348 18.8929 80.0869 19.5533 79.991 20.1402H65.4338C65.5536 21.6077 66.0568 22.7571 66.9434 23.5887C67.83 24.4202 68.9203 24.836 70.2143 24.836C72.0834 24.836 73.4133 24.0167 74.2041 22.378H79.6316C79.0565 24.3346 77.9542 25.9488 76.3248 27.2205C74.6953 28.4678 72.6944 29.0915 70.3221 29.0915C68.4051 29.0915 66.6798 28.6635 65.1462 27.8075C63.6366 26.927 62.4504 25.692 61.5878 24.1023C60.7491 22.5126 60.3297 20.6783 60.3297 18.5995C60.3297 16.4962 60.7491 14.6497 61.5878 13.06C62.4265 11.4703 63.6006 10.2474 65.1103 9.39144C66.6199 8.53545 68.3572 8.10746 70.3221 8.10746C72.2152 8.10746 73.9045 8.52322 75.3902 9.35476C76.8999 10.1863 78.062 11.3724 78.8768 12.9132C79.7155 14.4296 80.1348 16.1782 80.1348 18.1592ZM74.9229 16.6918C74.899 15.3712 74.4317 14.3195 73.5211 13.5369C72.6106 12.7298 71.4963 12.3263 70.1784 12.3263C68.9323 12.3263 67.8779 12.7176 67.0153 13.5002C66.1766 14.2584 65.6614 15.3222 65.4697 16.6918H74.9229Z" fill="white"/>
<path d="M88.8399 1.61416V28.7613H83.8078V1.61416H88.8399Z" fill="white"/>
<path d="M98.8438 1.61416V28.7613H93.8117V1.61416H98.8438Z" fill="white"/>
<path d="M106.368 6.01639C105.481 6.01639 104.738 5.73514 104.139 5.17263C103.564 4.58567 103.276 3.86419 103.276 3.0082C103.276 2.15221 103.564 1.44296 104.139 0.880447C104.738 0.293482 105.481 0 106.368 0C107.254 0 107.985 0.293482 108.56 0.880447C109.159 1.44296 109.459 2.15221 109.459 3.0082C109.459 3.86419 109.159 4.58567 108.56 5.17263C107.985 5.73514 107.254 6.01639 106.368 6.01639ZM108.848 8.43762V28.7613H103.816V8.43762H108.848Z" fill="white"/>
<path d="M124.854 8.14414C127.227 8.14414 129.144 8.91453 130.605 10.4553C132.067 11.9716 132.798 14.0994 132.798 16.8386V28.7613H127.766V17.5356C127.766 15.9214 127.37 14.6864 126.58 13.8304C125.789 12.9499 124.71 12.5097 123.345 12.5097C121.955 12.5097 120.853 12.9499 120.038 13.8304C119.247 14.6864 118.852 15.9214 118.852 17.5356V28.7613H113.82V8.43762H118.852V10.9689C119.523 10.0885 120.373 9.40367 121.404 8.91453C122.458 8.40094 123.608 8.14414 124.854 8.14414Z" fill="white"/>
<path d="M145.383 8.10746C146.869 8.10746 148.175 8.41317 149.301 9.02459C150.427 9.61156 151.314 10.3819 151.961 11.3358V8.43762H157.029V28.908C157.029 30.7912 156.657 32.4665 155.915 33.9339C155.172 35.4258 154.057 36.5997 152.572 37.4557C151.086 38.3362 149.289 38.7764 147.18 38.7764C144.353 38.7764 142.028 38.1038 140.207 36.7587C138.41 35.4136 137.391 33.5793 137.152 31.2559H142.148C142.412 32.1853 142.975 32.919 143.837 33.457C144.724 34.0195 145.79 34.3008 147.036 34.3008C148.498 34.3008 149.684 33.8483 150.595 32.9434C151.505 32.063 151.961 30.7178 151.961 28.908V25.7531C151.314 26.7069 150.415 27.5018 149.265 28.1376C148.139 28.7735 146.845 29.0915 145.383 29.0915C143.706 29.0915 142.172 28.6512 140.782 27.7708C139.392 26.8903 138.29 25.6553 137.475 24.0656C136.685 22.4514 136.289 20.6049 136.289 18.5261C136.289 16.4717 136.685 14.6497 137.475 13.06C138.29 11.4703 139.38 10.2474 140.746 9.39144C142.136 8.53545 143.682 8.10746 145.383 8.10746ZM151.961 18.5995C151.961 17.3522 151.721 16.2883 151.242 15.4078C150.763 14.5029 150.116 13.8181 149.301 13.3535C148.486 12.8643 147.611 12.6198 146.677 12.6198C145.742 12.6198 144.88 12.8521 144.089 13.3168C143.298 13.7815 142.651 14.4662 142.148 15.3712C141.669 16.2516 141.429 17.3032 141.429 18.5261C141.429 19.7489 141.669 20.825 142.148 21.7544C142.651 22.6593 143.298 23.3563 144.089 23.8455C144.904 24.3346 145.766 24.5792 146.677 24.5792C147.611 24.5792 148.486 24.3468 149.301 23.8821C150.116 23.393 150.763 22.7082 151.242 21.8278C151.721 20.9229 151.961 19.8468 151.961 18.5995Z" fill="white"/>
</svg>

<svg width="158" height="39" fill="none" xmlns="http://www.w3.org/2000/svg"><path d="M16.34 25.104h-.002l-.097.023-.01.002-6.812 1.6-.105.025H9.31a.532.532 0 00-.318.324.555.555 0 00.054.478l.14.15 2.138 2.269 2.938 3.118c0 .001 0 .002.002.002l.06.064a.523.523 0 00.454.124.52.52 0 00.369-.296l.053-.213 1.161-4.732.547-2.229v-.003l.018-.074.001-.005a.564.564 0 00-.142-.466.528.528 0 00-.446-.163v.002zM9.97 27.45zm.026-.257zm5.895-1.418zm.333.387zM29.78 9.86a24.68 24.68 0 00-4.749-7.049l-.074-.076a.147.147 0 00-.02-.02l-.039-.041a2.052 2.052 0 00-1.031-.532 2.013 2.013 0 00-1.139.116l-.018.007-.021.01-.018.008a1.57 1.57 0 00-.136.067l-.557.436c-.024.026-.047.054-.07.082l-.5.393-.001-.027-7.362 5.78-.017.014-.023.019L1.167 19.13l-.004.004-.262.205-.003.002c-.05.035-.098.073-.144.113l-.015.013a2.104 2.104 0 00-.513.66 2.22 2.22 0 00-.124 1.637v.004l.002.004v.008a11.172 11.172 0 00.71 2.055c.288.631.635 1.233 1.036 1.795v.002l.006.01h.001c.105.192.237.366.393.515l.001.002a2.01 2.01 0 002.108.436l.138-.032 2.93-.689.03-.007.019-.005 9.97-2.341 2.74-.644.012-.003 9.053-2.126.04-.01.859-.202.005-.001c.101-.016.201-.04.3-.07h.002a1.78 1.78 0 00.156-.058l.019-.008.022-.009c.023-.01.047-.02.071-.032.334-.16.621-.41.83-.724a2.175 2.175 0 00.365-1.197v-.005c0-.123-.009-.246-.029-.368l.002-.005-.002-.007A25.074 25.074 0 0029.797 9.9l-.009-.02-.009-.02h.001zm-2.376 1.448a6.431 6.431 0 01.25 4.032l-.002.006-.01.038-.008.035-.011.006.005.01-.016.034a.413.413 0 01-.037.063.187.187 0 01-.02.029c-.006.01-.016.018-.025.027l-.024.026-.03.022c-.01.007-.018.015-.027.023-.01.007-.023.012-.035.018l-.029.016-.04.015c-.01.003-.018.007-.028.009a.438.438 0 01-.052.01l-.019.003a.44.44 0 01-.386-.162 24.931 24.931 0 01-3.104-7.048l-.002-.007c0-.002 0-.004-.002-.004a.036.036 0 00-.003-.01l-.016-.063V8.43a.432.432 0 01.136-.389.404.404 0 01.345-.095c.004 0 .01.003.014.004a.36.36 0 01.03.008l.006.011.01-.005.07.034.008.004a6.197 6.197 0 013.052 3.306z" fill="#1E8BE8"/><path d="M53.547 12.656v9.832c0 .685.156 1.186.468 1.504.335.294.886.44 1.653.44h2.336v4.33h-3.163c-4.241 0-6.362-2.104-6.362-6.31v-9.796h-2.372V8.438h2.372V3.412h5.068v5.026h4.457v4.218h-4.457zm26.588 5.504c0 .733-.048 1.393-.144 1.98H65.434c.12 1.468.623 2.617 1.51 3.449.886.831 1.976 1.247 3.27 1.247 1.87 0 3.2-.82 3.99-2.458h5.428c-.576 1.957-1.678 3.57-3.307 4.843-1.63 1.247-3.63 1.87-6.003 1.87-1.917 0-3.642-.428-5.176-1.284-1.51-.88-2.696-2.115-3.558-3.705-.839-1.59-1.258-3.424-1.258-5.503 0-2.103.42-3.95 1.258-5.539.838-1.59 2.013-2.813 3.522-3.669 1.51-.856 3.247-1.284 5.212-1.284 1.893 0 3.582.416 5.068 1.248a8.52 8.52 0 013.487 3.558c.839 1.517 1.258 3.265 1.258 5.246zm-5.212-1.468c-.024-1.32-.491-2.373-1.402-3.155-.91-.807-2.025-1.21-3.343-1.21-1.246 0-2.3.39-3.163 1.173-.838.758-1.354 1.822-1.545 3.192h9.453zM88.84 1.614v27.147h-5.032V1.614h5.032zm10.004 0v27.147h-5.032V1.614h5.032zm7.524 4.402c-.887 0-1.63-.28-2.229-.843-.575-.587-.863-1.309-.863-2.165 0-.856.288-1.565.863-2.128.599-.587 1.342-.88 2.229-.88.886 0 1.617.293 2.192.88.599.563.899 1.272.899 2.128 0 .856-.3 1.578-.899 2.165-.575.562-1.306.843-2.192.843zm2.48 2.422V28.76h-5.032V8.438h5.032zm16.006-.294c2.373 0 4.29.77 5.751 2.311 1.462 1.517 2.193 3.644 2.193 6.384V28.76h-5.032V17.536c0-1.615-.396-2.85-1.186-3.706-.791-.88-1.87-1.32-3.235-1.32-1.39 0-2.492.44-3.307 1.32-.791.856-1.186 2.091-1.186 3.706V28.76h-5.032V8.438h5.032v2.53a6.843 6.843 0 012.552-2.053c1.054-.514 2.204-.77 3.45-.77zm20.529-.037c1.486 0 2.792.306 3.918.918 1.126.587 2.013 1.357 2.66 2.31V8.439h5.068v20.47c0 1.883-.372 3.559-1.114 5.026-.743 1.492-1.858 2.666-3.343 3.522-1.486.88-3.283 1.32-5.392 1.32-2.827 0-5.152-.672-6.973-2.017-1.797-1.345-2.816-3.18-3.055-5.503h4.996c.264.93.827 1.663 1.689 2.201.887.563 1.953.844 3.199.844 1.462 0 2.648-.453 3.559-1.358.91-.88 1.366-2.225 1.366-4.035v-3.155c-.647.954-1.546 1.749-2.696 2.385-1.126.635-2.42.953-3.882.953-1.677 0-3.211-.44-4.601-1.32-1.39-.88-2.492-2.116-3.307-3.705-.79-1.615-1.186-3.461-1.186-5.54 0-2.054.396-3.876 1.186-5.466.815-1.59 1.905-2.813 3.271-3.669 1.39-.856 2.936-1.284 4.637-1.284zm6.578 10.492c0-1.247-.24-2.31-.719-3.191-.479-.905-1.126-1.59-1.941-2.054a5.012 5.012 0 00-2.624-.734c-.935 0-1.797.232-2.588.697-.791.464-1.438 1.15-1.941 2.054-.479.88-.719 1.932-.719 3.155 0 1.223.24 2.299.719 3.228.503.905 1.15 1.602 1.941 2.091a4.94 4.94 0 002.588.734 5.21 5.21 0 002.624-.697c.815-.489 1.462-1.174 1.941-2.054.479-.905.719-1.981.719-3.229z" fill="#fff"/></svg>
